icons-dark/apps/48/ktip.svg

<svg width="48" xmlns="http://www.w3.org/2000/svg" height="48">
 <defs>
  <linearGradient id="a" y1="1016.36" x1="13" y2="1040.36" gradientUnits="userSpaceOnUse" x2="36">
   <stop stop-color="#292c2f"/>
   <stop offset="1" stop-opacity="0"/>
  </linearGradient>
  <linearGradient id="b" y1="44" y2="4" x2="0" gradientUnits="userSpaceOnUse">
   <stop stop-color="#7cbaf8"/>
   <stop offset="1" stop-color="#f4fcff"/>
  </linearGradient>
  <linearGradient id="c" y1="39" y2="9" x2="0" gradientUnits="userSpaceOnUse" gradientTransform="matrix(1.02857 0 0 1.2-5.314-4.8)">
   <stop stop-color="#197cf1"/>
   <stop offset="1" stop-color="#20bcfa"/>
  </linearGradient>
 </defs>
 <g fill-rule="evenodd" transform="translate(0-1004.36)">
  <g color="#000000" stroke-width="2">
   <path fill="url(#b)" d="M44 24A20 20 0 1 1 4 24 20 20 0 1 1 44 24" transform="translate(0 1004.36)"/>
   <path fill="url(#c)" d="m24 6c-9.941 0-18 8.06-18 18 0 9.941 8.06 18 18 18 9.941 0 18-8.06 18-18 0-9.941-8.06-18-18-18m-2 6h4v4h-4zm0 8h4v16h-4v-12z" transform="translate(0 1004.36)"/>
  </g>
  <path opacity=".2" fill="url(#a)" d="m26 1020.36h-4l4 4v16h-4l8 8c5.172 0 15 0 15 0v-14l-19-18z"/>
 </g>
</svg>

<?xml version="1.0" encoding="UTF-8" standalone="no"?>

<!-- Created with Inkscape (http://www.inkscape.org/) -->
<svg width="48" version="1.1" xmlns="http://www.w3.org/2000/svg" height="48" xmlns:xlink="http://www.w3.org/1999/xlink" xmlns:inkscape="http://www.inkscape.org/namespaces/inkscape">
 <defs id="defs3020">
  <linearGradient inkscape:collect="always" xlink:href="#linearGradient4143" id="linearGradient4149" y1="545.79797" y2="517.79797" x2="0" gradientUnits="userSpaceOnUse" gradientTransform="matrix(0.92857108 0 0 0.92857057 28.612354 37.986142)"/>
  <linearGradient inkscape:collect="always" id="linearGradient4143">
   <stop style="stop-color:#197cf1" id="stop4145"/>
   <stop offset="1" style="stop-color:#20bcfa" id="stop4147"/>
  </linearGradient>
  <linearGradient inkscape:collect="always" id="linearGradient4227">
   <stop style="stop-color:#292c2f" id="stop4229"/>
   <stop offset="1" style="stop-opacity:0" id="stop4231"/>
  </linearGradient>
  <linearGradient inkscape:collect="always" id="linearGradient4290">
   <stop style="stop-color:#7cbaf8" id="stop4292"/>
   <stop offset="1" style="stop-color:#f4fcff" id="stop4294"/>
  </linearGradient>
  <linearGradient inkscape:collect="always" xlink:href="#linearGradient4290" id="linearGradient3077" y1="29.999973" y2="2" gradientUnits="userSpaceOnUse" x2="0" gradientTransform="matrix(1.3793103 0 0 1.3793103 1.241379 1005.6035)"/>
  <linearGradient inkscape:collect="always" xlink:href="#linearGradient4227" id="linearGradient3080" y1="7.800058" x1="8.525001" y2="25.20006" gradientUnits="userSpaceOnUse" x2="25.2" gradientTransform="matrix(1.3793103 0 0 1.3793103 1.241379 1005.6035)"/>
  <linearGradient inkscape:collect="always" xlink:href="#linearGradient4143" id="linearGradient3083" y1="545.79797" y2="517.79797" gradientUnits="userSpaceOnUse" x2="0" gradientTransform="matrix(1.2807877 0 0 1.280787 -450.11598 346.31133)"/>
  <linearGradient inkscape:collect="always" xlink:href="#linearGradient4290" id="linearGradient3861" y1="44" y2="4" x2="0" gradientUnits="userSpaceOnUse"/>
  <linearGradient inkscape:collect="always" xlink:href="#linearGradient4290" id="linearGradient3870" y1="29.999973" y2="2" gradientUnits="userSpaceOnUse" x2="0" gradientTransform="matrix(1.3793103 0 0 1.3793103 -18.758621 1005.6035)"/>
  <linearGradient inkscape:collect="always" xlink:href="#linearGradient4143" id="linearGradient3880" y1="39" y2="9" x2="0" gradientUnits="userSpaceOnUse" gradientTransform="matrix(1.0285714 0 0 1.2 -5.314284 -4.8)"/>
 </defs>
 <metadata id="metadata3023"/>
 <g inkscape:label="Layer 1" inkscape:groupmode="layer" id="layer1" transform="matrix(1 0 0 1 0 -1004.3622)">
  <path style="fill:url(#linearGradient3861);color:#000000;fill-rule:evenodd;stroke-width:2" id="path3085" d="M 44,24 A 20,20 0 1 1 4,24 20,20 0 1 1 44,24 z" transform="matrix(1 0 0 1 0 1004.3622)"/>
  <path style="fill:url(#linearGradient3880);color:#000000;fill-rule:evenodd;stroke-width:2" id="path3872" d="M 24 6 C 14.058875 6 6 14.058875 6 24 C 6 33.941125 14.058875 42 24 42 C 33.941125 42 42 33.941125 42 24 C 42 14.058875 33.941125 6 24 6 z M 22 12 L 26 12 L 26 16 L 22 16 L 22 12 z M 22 20 L 26 20 L 26 32 L 26 34 L 26 36 L 22 36 L 22 34 L 22 32 L 22 28 L 22 24 L 22 20 z " transform="matrix(1 0 0 1 0 1004.3622)"/>
  <path inkscape:connector-curvature="0" style="fill:url(#linearGradient3080);opacity:0.2;fill-rule:evenodd" id="path4184" d="m 26,1020.3622 -4,0 4,4 0,16 -4,0 8,8 c 5.172,0 15,0 15,0 l 0,-14 -19,-18 z"/>
 </g>
</svg>
